Obsidian/status/16s/kazam-recording.svg

<svg height="16" width="16" xmlns="http://www.w3.org/2000/svg"><path d="m1.1816 2c-.6547 0-1.1816.5344-1.1816 1.1992v9.6018c0 .665.5269 1.199 1.1816 1.199h9.6364c.655 0 1.182-.534 1.182-1.199v-2.801l4 2v-8l-4 2v-2.8008c0-.6648-.527-1.1992-1.182-1.1992zm4.8184 2c2.2091 0 4 1.7909 4 4 0 2.209-1.7909 4-4 4s-4-1.791-4-4c0-2.2091 1.7909-4 4-4z" fill="#d3dae3"/><circle cx="6" cy="8" fill="#5294e2" r="3"/></svg>

<svg xmlns="http://www.w3.org/2000/svg" width="16" height="16" version="1">
 <defs>
  <style id="current-color-scheme" type="text/css">
   .ColorScheme-Text { color:#d3dae3; } .ColorScheme-Highlight { color:#5294e2; }
  </style>
 </defs>
 <path style="fill:currentColor" class="ColorScheme-Text" d="M 1.1816,2 C 0.5269,2 0,2.5344 0,3.1992 V 12.801 C 0,13.466 0.5269,14 1.1816,14 H 10.818 C 11.473,14 12,13.466 12,12.801 V 10 L 16,12 V 4 L 12,6 V 3.1992 C 12,2.5344 11.473,2 10.818,2 Z M 6,4 C 8.2091,4 10,5.7909 10,8 10,10.209 8.2091,12 6,12 3.7909,12 2,10.209 2,8 2,5.7909 3.7909,4 6,4 Z"/>
 <circle style="fill:currentColor" class="ColorScheme-Highlight" cx="6" cy="8" r="3"/>
</svg>
